X: 7
T: The Maid On The Green
R: jig
M: 6/8
L: 1/8
K: Gmaj
d|:gfg e2d|Bee dBA|AGG dGG|BAG ABd|
gfg e2d|Bee dBA|AGG dBA|BGF GBd:|
|:g3 afd|g3 a3|bag agf|gef g2a|
bag agf|gfg e2d|Bee dBA|1 BGF GBd:|2BGF G3||


Tune 1831	Setting 25322

